X:1
T:good evening
L:1/4
Q:1/4=120
M:4/4
K:Cmin
V:1 bass nm="Piano" snm="Pno."
V:1
 C,, G,, A,, E,, | D,, _G,, =G,, ^C,, | C,, G,, A,, E,, | D,, _G,, =G,, ^C,,/>G,,/ | %4
 C,, G,, A,, E,, | D,, _G,, =G,, ^C,, | C,, G,, A,, E,, | D,,/>F,,/ _G,,/>=G,,/- G,, ^C,,/>G,,/ | C,,2 z2 |] %9